Sources/FrostedUI/Resources/Icons.xcassets/cameraAddFilled16.imageset/camera-add-filled-16.svg

<svg width="16" height="16" viewBox="0 0 16 16" fill="none" xmlns="http://www.w3.org/2000/svg" data-fui-icon="true">
  <path
    d="M9.59375 0.75C10.0466 0.750061 10.4854 0.847586 10.8848 1.02734C10.9776 1.06914 11.0254 1.1694 11.0137 1.27051C10.9991 1.39558 10.8975 1.49842 10.7725 1.5127C9.77512 1.62573 9 2.47243 9 3.5C9 4.25709 9.42066 4.91627 10.041 5.25586C10.5254 5.52104 10.979 5.97463 11.2441 6.45898C11.5837 7.07934 12.2429 7.5 13 7.5C13.994 7.5 14.8186 6.77442 14.9736 5.82422C15.0027 5.64678 15.1469 5.50254 15.3242 5.47266C15.3712 5.46475 15.418 5.45547 15.4639 5.44434C15.6018 5.41091 15.75 5.4977 15.75 5.63965V12.0996C15.75 13.8393 14.3393 15.25 12.5996 15.25H3.40039C1.66069 15.25 0.25 13.8393 0.25 12.0996V5.63965C0.25 4.32011 1.32011 3.25 2.63965 3.25C2.96136 3.24985 3.25784 3.07564 3.41504 2.79492L3.6582 2.36133C4.2152 1.36665 5.26626 0.75017 6.40625 0.75H9.59375ZM8 5C6.067 5 4.5 6.567 4.5 8.5C4.5 10.433 6.067 12 8 12C9.933 12 11.5 10.433 11.5 8.5C11.5 6.567 9.933 5 8 5ZM8 6.5C9.10457 6.5 10 7.39543 10 8.5C10 9.60457 9.10457 10.5 8 10.5C6.89543 10.5 6 9.60457 6 8.5C6 7.39543 6.89543 6.5 8 6.5ZM13 0.75C13.4142 0.75 13.75 1.08579 13.75 1.5V2.75H15C15.4142 2.75 15.75 3.08579 15.75 3.5C15.75 3.91421 15.4142 4.25 15 4.25H13.75V5.5C13.75 5.91421 13.4142 6.25 13 6.25C12.5858 6.25 12.25 5.91421 12.25 5.5V4.25H11C10.5858 4.25 10.25 3.91421 10.25 3.5C10.25 3.08579 10.5858 2.75 11 2.75H12.25V1.5C12.25 1.08579 12.5858 0.75 13 0.75Z"
    fill="currentColor"
  />
</svg>

<svg xmlns="http://www.w3.org/2000/svg" width="16" height="16" fill="none" data-fui-icon="true" viewBox="0 0 16 16"><path fill="currentColor" d="M9.594.75c.453 0 .891.098 1.29.277.094.042.141.142.13.244a.28.28 0 0 1-.241.242 2 2 0 0 0-.732 3.743 3.17 3.17 0 0 1 1.203 1.203 2 2 0 0 0 3.73-.635.43.43 0 0 1 .35-.351q.07-.012.14-.029c.138-.033.286.054.286.196v6.46a3.15 3.15 0 0 1-3.15 3.15H3.4A3.15 3.15 0 0 1 .25 12.1V5.64a2.39 2.39 0 0 1 2.39-2.39.89.89 0 0 0 .775-.455l.243-.434A3.15 3.15 0 0 1 6.406.75zM8 5a3.5 3.5 0 1 0 0 7 3.5 3.5 0 0 0 0-7m0 1.5a2 2 0 1 1 0 4 2 2 0 0 1 0-4m5-5.75a.75.75 0 0 1 .75.75v1.25H15a.75.75 0 0 1 0 1.5h-1.25V5.5a.75.75 0 0 1-1.5 0V4.25H11a.75.75 0 0 1 0-1.5h1.25V1.5A.75.75 0 0 1 13 .75"/></svg>
